packages/core/src/svgs/tokens/mono/PLI.svg

<svg width="24" height="24" viewBox="0 0 24 24" fill="none" xmlns="http://www.w3.org/2000/svg">
<path d="M6.14123 12.0003C4.68648 12.0297 3.25235 11.6527 2 10.912C2.48824 10.5414 4.00003 9.80019 6.14123 9.80019C7.70164 9.79154 9.23912 10.1759 10.6118 10.9179C9.22849 11.6278 7.69616 11.9988 6.14123 12.0003Z" fill="white"/>
<path d="M7.53464 9.31766C6.508 8.73581 5.68465 7.85292 5.17578 6.78821C6.34853 6.67656 7.52529 6.95576 8.52289 7.58235C9.6116 8.22125 10.5014 9.14986 11.0936 10.2647C10.5053 10.3 8.96407 10.1589 7.53464 9.32355V9.31766Z" fill="white"/>
<path d="M9.64721 7.45885C9.2302 6.68934 9.0559 5.81162 9.14719 4.94116C9.4825 5.05881 10.4942 5.64706 11.0884 6.68825C11.6767 7.73532 11.5707 8.73534 11.5355 9.14711C11.1649 8.95299 10.2178 8.4765 9.64131 7.45885H9.64721Z" fill="white"/>
<path d="M17.8588 12.0003C19.3136 12.0297 20.7478 11.6527 22.0001 10.912C21.5119 10.5414 20 9.80019 17.8588 9.80019C16.2984 9.79154 14.7609 10.1759 13.3882 10.9179C14.0117 11.2708 15.7824 12.0003 17.8588 12.0003Z" fill="white"/>
<path d="M16.4641 9.31766C17.4908 8.73581 18.3142 7.85292 18.823 6.78821C17.6502 6.67656 16.4734 6.95576 15.4758 7.58235C14.3872 8.22125 13.4973 9.14986 12.9053 10.2647C13.4934 10.3 15.0347 10.1589 16.4641 9.32355V9.31766Z" fill="white"/>
<path d="M14.353 7.45885C14.9352 6.44706 14.9058 5.30587 14.8529 4.94116C14.5177 5.05881 13.5058 5.64706 12.9118 6.68825C12.3235 7.73532 12.4293 8.73534 12.4646 9.14711C12.8352 8.95299 13.7822 8.4765 14.3587 7.45885H14.353Z" fill="white"/>
<path d="M2 16.1175V19.0587H3.76473V17.8823H7.07654C8.17067 17.8823 9.05892 16.7293 9.05892 15.5293C9.05892 14.3292 8.17067 13.1763 7.07654 13.1763H3.12942L2 14.941H6.72948C7.05889 14.941 7.29419 15.1705 7.29419 15.5293C7.29419 15.8881 7.05889 16.1175 6.72948 16.1175H2ZM11.4119 19.0587V13.1763H13.1766V17.294H17.2943L16.2002 19.0587H11.4119Z" fill="white"/>
<path d="M19.647 19.0587V13.1763H21.4117V19.0587H19.647Z" fill="white"/>
</svg>

<svg xmlns="http://www.w3.org/2000/svg" width="24" height="24" fill="none" viewBox="0 0 24 24">
    <path fill="#fff" d="M6.141 12A7.8 7.8 0 0 1 2 10.912c.488-.37 2-1.112 4.141-1.112a9.3 9.3 0 0 1 4.47 1.118A9.8 9.8 0 0 1 6.142 12m1.393-2.682a5.77 5.77 0 0 1-2.36-2.53 5.34 5.34 0 0 1 3.348.794 6.8 6.8 0 0 1 2.57 2.683c-.588.035-2.129-.106-3.558-.941zm2.112-1.859a4.34 4.34 0 0 1-.5-2.518c.335.118 1.347.706 1.941 1.747.589 1.047.483 2.047.448 2.46-.371-.195-1.318-.671-1.895-1.69zM17.859 12A7.8 7.8 0 0 0 22 10.912c-.488-.37-2-1.112-4.141-1.112a9.3 9.3 0 0 0-4.47 1.118c.623.353 2.393 1.082 4.47 1.082m-1.395-2.682a5.76 5.76 0 0 0 2.359-2.53 5.34 5.34 0 0 0-3.347.794 6.8 6.8 0 0 0-2.57 2.683c.587.035 2.129-.106 3.558-.941zm-2.111-1.859c.582-1.012.553-2.153.5-2.518-.335.118-1.347.706-1.941 1.747-.589 1.047-.483 2.047-.447 2.46.37-.195 1.317-.671 1.894-1.69zM2 16.118v2.94h1.765v-1.176h3.312c1.094 0 1.982-1.153 1.982-2.353s-.888-2.353-1.982-2.353H3.129L2 14.941h4.73c.329 0 .564.23.564.588 0 .36-.235.588-.565.588zm9.412 2.94v-5.882h1.765v4.118h4.117L16.2 19.059zm8.235.001v-5.883h1.765v5.883z"/>
</svg>
